X: 21192
M: 6/8
L: 1/8
K: D	% and Bm
d2c d2e | f2g f2e | d2c d2e | f3 B2c |\
d2e f2b | a2f e2f | d2B cB^A | B3 B2 |]
c |\
d2B BAF | d2B BAF | d2B BAF | A3 A2B/c/ |\
d2e f2b | a2f e2f | d2B cB^A | B3 B2c |
d2B BAF | d2B BAF | fed edc | dcB ABc |\
d2e f2b | a2f He2f | d2B {d}cB^A | B3 B2 |]


